images_elementary_svg/cmd/sc_glueinsertpoint.svg

<svg viewBox="0 0 16 16" xmlns="http://www.w3.org/2000/svg" xmlns:xlink="http://www.w3.org/1999/xlink"><radialGradient id="a" cx="64.574997" cy="48.605" gradientTransform="matrix(0 .3853 -.4196 0 32.39 -16.793)" gradientUnits="userSpaceOnUse" r="31"><stop offset="0" stop-color="#cdf87e"/><stop offset=".262" stop-color="#a2e34f"/><stop offset=".661" stop-color="#68b723"/><stop offset="1" stop-color="#1d7e0d"/></radialGradient><linearGradient id="b" gradientTransform="matrix(.24324324 0 0 .35135133 2.162164 -.432428)" gradientUnits="userSpaceOnUse" x1="8.393597" x2="8.114878" y1="5.859192" y2="40.628426"><stop offset="0" stop-color="#fff"/><stop offset=".09996539" stop-color="#fff" stop-opacity=".235294"/><stop offset="1" stop-color="#fff" stop-opacity=".156863"/><stop offset="1" stop-color="#fff" stop-opacity=".392157"/></linearGradient><linearGradient id="c" gradientTransform="matrix(.25378586 0 0 .30501865 19.128979 -.685477)" gradientUnits="userSpaceOnUse" x1="4.794308" x2="8" y1="49.229637" y2="0"><stop offset="0" stop-opacity=".339506"/><stop offset="1" stop-opacity=".246914"/></linearGradient>


/&amp;amp;amp;amp;gt;<path d="m.5.5v15h15v-15z" fill="#e9e9e9" stroke="url(#c)" stroke-linejoin="round"/><path d="m1.4999998 1.5v13h13.0000002v-13z" fill="none" stroke="url(#b)"/><g stroke-linecap="round" stroke-linejoin="round"><path d="m4.5 4.5v-2h3v2h2v3h-2v2h-3v-2h-2v-3z" fill="#46aaec" fill-opacity=".984314" stroke="#225790" stroke-opacity=".669118"/><g fill="#fff" stroke-width=".750352"><path d="m5 3h2v1h-2z" opacity=".5"/><path d="m3 5v1h2v-1zm4 0v1h2v-1z" opacity=".4"/></g><path d="m5 8h2v1h-2z" fill="#fff" opacity=".2" stroke-width=".750352"/></g><path d="m10.5 10.5v-2.007h3v2.007h2.007v3h-2.007v2.007h-3v-2.007h-2.007v-3z" fill="url(#a)"/><path d="m10.5 10.5v-2.007h3v2.007h2.007v3h-2.007v2.007h-3v-2.007h-2.007v-3z" fill="none" opacity=".5" stroke="#0f5a00" stroke-linecap="round" stroke-linejoin="round"/><g fill="#fff"><path d="m11 9h2v1h-2z" opacity=".5"/><path d="m11 14h2v1h-2z" opacity=".2"/><path d="m9 11v1h2v-1zm4 0v1h2v-1z" opacity=".4"/></g></svg>

<?xml version="1.0" encoding="UTF-8" standalone="no"?>
<svg
   xmlns:dc="http://purl.org/dc/elements/1.1/"
   xmlns:cc="http://creativecommons.org/ns#"
   xmlns:rdf="http://www.w3.org/1999/02/22-rdf-syntax-ns#"
   xmlns:svg="http://www.w3.org/2000/svg"
   xmlns="http://www.w3.org/2000/svg"
   xmlns:sodipodi="http://sodipodi.sourceforge.net/DTD/sodipodi-0.dtd"
   xmlns:inkscape="http://www.inkscape.org/namespaces/inkscape"
   viewBox="0 0 16 16"
   version="1.1"
   id="svg55"
   sodipodi:docname="sc_glueinsertpoint.svg"
   inkscape:version="0.92.3 (unknown)"
   inkscape:export-filename="/home/rizmut/Dokumen/Rizmut/Github/libreoffice-style-elementary/images_elementary/cmd/sc_glueinsertpoint.png"
   inkscape:export-xdpi="96"
   inkscape:export-ydpi="96"><metadata
   id="metadata61">
  <rdf:RDF>
    <cc:Work
       rdf:about="">
      <dc:format>image/svg+xml</dc:format>
      <dc:type
         rdf:resource="http://purl.org/dc/dcmitype/StillImage" />
      <dc:title></dc:title>
    </cc:Work>
  </rdf:RDF>
</metadata>
<defs
   id="defs59">
  <radialGradient
     id="g"
     cx="64.574997"
     cy="48.605"
     gradientTransform="matrix(0,0.3853,-0.4196,0,32.253636,-16.929364)"
     gradientUnits="userSpaceOnUse"
     r="31">
    <stop
       offset="0"
       stop-color="#cdf87e"
       id="stop3209" />
    <stop
       offset=".262"
       stop-color="#a2e34f"
       id="stop3211" />
    <stop
       offset=".661"
       stop-color="#68b723"
       id="stop3213" />
    <stop
       offset="1"
       stop-color="#1d7e0d"
       id="stop3215" />
  </radialGradient>
  <radialGradient
     id="g-6"
     cx="64.574997"
     cy="48.605"
     gradientTransform="matrix(0,0.3853,-0.4196,0,32.39,-16.793)"
     gradientUnits="userSpaceOnUse"
     r="31">
    <stop
       offset="0"
       stop-color="#cdf87e"
       id="stop3889" />
    <stop
       offset=".262"
       stop-color="#a2e34f"
       id="stop3891" />
    <stop
       offset=".661"
       stop-color="#68b723"
       id="stop3893" />
    <stop
       offset="1"
       stop-color="#1d7e0d"
       id="stop3895" />
  </radialGradient>
</defs>
<sodipodi:namedview
   pagecolor="#ffffff"
   bordercolor="#666666"
   borderopacity="1"
   objecttolerance="10"
   gridtolerance="10"
   guidetolerance="10"
   inkscape:pageopacity="0"
   inkscape:pageshadow="2"
   inkscape:window-width="1366"
   inkscape:window-height="706"
   id="namedview57"
   showgrid="true"
   inkscape:zoom="32"
   inkscape:cx="8.2716336"
   inkscape:cy="5.0290971"
   inkscape:window-x="0"
   inkscape:window-y="0"
   inkscape:window-maximized="1"
   inkscape:current-layer="svg55">
  <inkscape:grid
     type="xygrid"
     id="grid871"
     spacingx="0.5"
     spacingy="0.5" />
</sodipodi:namedview>
<linearGradient
   id="a"
   gradientTransform="matrix(.24324324 0 0 .35135133 2.162164 -.432428)"
   gradientUnits="userSpaceOnUse"
   x1="8.393597"
   x2="8.114878"
   y1="5.859192"
   y2="40.628426">
  <stop
     offset="0"
     stop-color="#fff"
     id="stop2" />
  <stop
     offset=".09996539"
     stop-color="#fff"
     stop-opacity=".235294"
     id="stop4" />
  <stop
     offset="1"
     stop-color="#fff"
     stop-opacity=".156863"
     id="stop6" />
  <stop
     offset="1"
     stop-color="#fff"
     stop-opacity=".392157"
     id="stop8" />
</linearGradient>
<linearGradient
   id="b"
   gradientTransform="matrix(.25378586 0 0 .30501865 19.128979 -.685477)"
   gradientUnits="userSpaceOnUse"
   x1="4.794308"
   x2="8"
   y1="49.229637"
   y2="0">
  <stop
     offset="0"
     stop-opacity=".339506"
     id="stop11" />
  <stop
     offset="1"
     stop-opacity=".246914"
     id="stop13" />
</linearGradient>
<radialGradient
   id="c"
   cx="64.575233"
   cy="48.605404"
   gradientTransform="matrix(0,0.39751491,-0.4329035,0,33.053182,-17.690064)"
   gradientUnits="userSpaceOnUse"
   r="31.000002">
  <stop
     offset="0"
     stop-color="#cdf87e"
     id="stop16" />
  <stop
     offset=".26238"
     stop-color="#a2e34f"
     id="stop18" />
  <stop
     offset=".66093999"
     stop-color="#68b723"
     id="stop20" />
  <stop
     offset="1"
     stop-color="#1d7e0d"
     id="stop22" />
</radialGradient>


/&amp;amp;amp;gt;<path
   d="m.5.5v15h15v-15z"
   fill="#e9e9e9"
   stroke="url(#b)"
   stroke-linejoin="round"
   id="path25" />
<path
   d="m1.4999998 1.5v13h13.0000002v-13z"
   fill="none"
   stroke="url(#a)"
   id="path27" />
<path
   sodipodi:nodetypes="ccccccccccccc"
   style="fill:#46aaec;fill-opacity:0.98431402;stroke:#225790;stroke-width:1;stroke-linecap:round;stroke-linejoin:round;stroke-opacity:0.66911801"
   inkscape:connector-curvature="0"
   id="path45"
   d="m 4.5,4.5 v -2 h 3 v 2 h 2 v 3 h -2 v 2 h -3 v -2 h -2 v -3 z" />
<g
   style="fill:#ffffff;stroke-width:0.75035203;stroke-linecap:round;stroke-linejoin:round"
   id="g51">
  <path
     sodipodi:nodetypes="ccccc"
     style="opacity:0.5"
     inkscape:connector-curvature="0"
     id="path47"
     d="M 5,3 H 7 V 4 H 5 Z" />
  <path
     sodipodi:nodetypes="cccccccccc"
     style="opacity:0.4"
     inkscape:connector-curvature="0"
     id="path49"
     d="M 3,5 V 6 H 5 V 5 Z M 7,5 V 6 H 9 V 5 Z" />
</g>
<path
   sodipodi:nodetypes="ccccc"
   style="opacity:0.2;fill:#ffffff;stroke-width:0.75035203;stroke-linecap:round;stroke-linejoin:round"
   inkscape:connector-curvature="0"
   id="path39"
   d="M 5,8 H 7 V 9 H 5 Z" />
<g
   id="g4553">
  <path
     id="path3924"
     d="M 10.5,10.5 V 8.493 h 3 V 10.5 h 2.007 v 3 H 13.5 v 2.007 h -3 V 13.5 H 8.493 v -3 z"
     style="fill:url(#g-6)"
     inkscape:connector-curvature="0" />
  <path
     id="path3926"
     d="M 10.5,10.5 V 8.493 h 3 V 10.5 h 2.007 v 3 H 13.5 v 2.007 h -3 V 13.5 H 8.493 v -3 z"
     style="opacity:0.5;fill:none;stroke:#0f5a00;stroke-linecap:round;stroke-linejoin:round"
     inkscape:connector-curvature="0" />
  <g
     id="g3934"
     style="fill:#ffffff">
    <path
       id="path3928"
       d="m 11,9 h 2 v 1 h -2 z"
       inkscape:connector-curvature="0"
       style="opacity:0.5" />
    <path
       id="path3930"
       d="m 11,14 h 2 v 1 h -2 z"
       inkscape:connector-curvature="0"
       style="opacity:0.2" />
    <path
       id="path3932"
       d="m 9,11 v 1 h 2 v -1 z m 4,0 v 1 h 2 v -1 z"
       inkscape:connector-curvature="0"
       style="opacity:0.4" />
  </g>
</g>
</svg>
